!!!OTL: "Die Frankfurter Messe" WER WILL MIT NACH FRANKFURT FAHREN
!!!ARE: Europa, Mitteleuropa, Deutschland, Niederrhein
!!!SCT: Z1339
!!!YEM: Copyright 1995, estate of Helmut Schaffrath.
**kern
*ICvox
*Ivox
*M2/4
*k[f#c#]
*D:
=1
{8d
8A
8F#
8A
=2
4d
4e
=3
4d
4e
=4
8d
8f#
8r}
{8A
=5
8d
8A
8F#
8A
=6
4d
4e
=7
4d
4e
=8
8d
8f#
4r}
=9
{8.d
16e
8f#
8d
=10
8c#
8B
8B
8r}
=11
{8e
8e
8e
8d
=12
8c#
8d
8A
8r}
=13
{4f#
8g
8e
=14
4d
4r}
==
!!!AGN: Zech -, Schalks - Lied
!!!ONB: ESAC (Essen Associative Code) Database: ZUCCAL
!!!AMT: simple duple
!!!AIN: vox
!!!EED: Helmut Schaffrath
!!!EEV: 1.0
*-
